X: 19596
T: Jamie Shearer
R: reel
M: 4/4
K: Dmajor
dcBA d2Ad|cdAd Be~e2|fedc d2AF|1 GB,EG FDDc:|2 G2AG FDDG||
FAdc BGGf|gfed (3cde AG|FAde fdAF|GEAG FDDG|
FAdc BGGf|gfed cABc|d2cd BdAd|cbag fddc||

